X: 11471
T: Echoes Of Killarney
R: slide
M: 12/8
K: Amajor
|:EFG|A3- A2 B c2 f f^ef|e2 c B2 c e2 c B^AB|
A2 A A2 B c3 f3|e2 c B2 c A3:|
|:efg|a2 g f2 e f2 g aga|e2 c B2 c e2 c B2 e|
a2 g f2 e f3 a3|e2 c B2 G A3:|

